symbols/web/spa/materialsymbolsrounded/spa_wght600grad200fill1_20px.svg

<svg xmlns="http://www.w3.org/2000/svg" height="20" width="20"><path d="M8.958 17.875q.021.687-.427 1.052t-1.073.177q-2.25-.792-4.052-2.687-1.802-1.896-2.427-4.605-.125-.645.313-1.093.437-.448 1.083-.386 3.729.355 5.062 2.094 1.334 1.74 1.521 5.448Zm.125-16.313q.355-.5.948-.51.594-.01.948.49 1.292 1.708 2.146 3.781.854 2.073.875 3.052-1.271.479-2.156 1.125-.886.646-1.802 1.854-1.063-1.333-1.969-1.906-.906-.573-2.031-1.073.041-1.125.885-3.083.844-1.959 2.156-3.73Zm8.605 8.771q.666-.083 1.093.386.427.469.281 1.093-.791 3.188-2.687 5.073-1.896 1.886-4.792 2.511.084-1.396 0-2.729-.083-1.334-.166-2.5.645-1.375 1.864-2.438 1.219-1.062 4.407-1.396Z"/></svg>

<svg xmlns="http://www.w3.org/2000/svg" height="20" width="20"><path d="M8.958 17.875Q8.979 18.562 8.531 18.927Q8.083 19.292 7.458 19.104Q5.208 18.312 3.406 16.417Q1.604 14.521 0.979 11.812Q0.854 11.167 1.292 10.719Q1.729 10.271 2.375 10.333Q6.104 10.688 7.437 12.427Q8.771 14.167 8.958 17.875ZM9.083 1.562Q9.438 1.062 10.031 1.052Q10.625 1.042 10.979 1.542Q12.271 3.25 13.125 5.323Q13.979 7.396 14 8.375Q12.729 8.854 11.844 9.5Q10.958 10.146 10.042 11.354Q8.979 10.021 8.073 9.448Q7.167 8.875 6.042 8.375Q6.083 7.25 6.927 5.292Q7.771 3.333 9.083 1.562ZM17.688 10.333Q18.354 10.25 18.781 10.719Q19.208 11.188 19.062 11.812Q18.271 15 16.375 16.885Q14.479 18.771 11.583 19.396Q11.667 18 11.583 16.667Q11.5 15.333 11.417 14.167Q12.062 12.792 13.281 11.729Q14.5 10.667 17.688 10.333Z"/></svg>
